!!!COM: Robert Franz
!!!CNT: Deutscher
!!!TXO: Deutsche 
!!!OTL: Genesung
!!!OPS: Op. 5
!!!ONM: No. 12
!!!ONB: Original key: Bb Major
!!!LYR: J. Schroer
!!!ENC: Brian Bice
!!!YOR: Vocal Album, G. Schirmer, Inc., 1907
!!!ODT: 1846
!!NB: Vocal melody and text only encoded.
**kern	**silbe
*clefG2	*
*k[f#c#g#d#a#]	*
*M12/8	*
=6	=6
(8.r	.
{8.f#	{Und
8.d#	nun
8.f#)	ein
4.b	End'
4.a#	dem
=7	=7
2.cc#	Trau-
(8.b	-ern,
8.a#	dem
8.b	Schau-
8.cc#)	-ern
=8	=8
4.dd#	in
4.cc#	den
(4.b	Mau-
4.cc#)	|
=9	=9
(8.f#}	-ern,}
{8.f#	{und
8.d#	nun
8.f#)	ein
4.b	End'
4.a#	den
=10	=10
2.cc#	Thra2-
(8.b	-nen,
8.a#	und
8.b	nun
8.g#)	ein
=11	=11
(2.f#	an-
[4.g#	|
4g#])	|
8f#	-der
=12	=12
2.f#}	Lied!}
2.r	.
=13	=13
2.r	.
4.r	.
{4.d#	{Was
=14	=14
4.g#	Dul-
4.b	-den
4.dd#	und
4.g#	was
=15	=15
4.f##	Tra-
4a#}	-gen!}
8r	.
4.r	.
{4.d#	{Das
=16	=16
4.g#	Kla-
4.b	-gen
4.dd#	und
4.g#	Ent-
=17	=17
4.f##	-sa-
4a#}	-gen,}
8r	.
4.r	.
{4.d#	{das
=18	=18
4.cc#	Sin-
4.b	-nen
4.a#	und
4.g#	das
=19	=19
2.ee	Seh-
(8.g#	-nen
8.a#	bin
8.b	ich
8.cc#)	nun
=20	=20
([2.f#	end
4f#]	|
4e)	|
4c#	lich
=21	=21
2.b}	mu2d'!}
2.r	.
=26	=26
(8.r	.
{8.f#	{Ich
8.d#	fu2hl'
8.f#)	mich
4.b	neu
4.a#	ge-
=27	=27
2.cc#	-bo-
(8.b	-ren!
8.a#	Ich
8.b	hab'
8.cc#)	sie
=28	=28
4.dd#	mir
4.cc#	er-
(4.b	-ko-
4.cc#)	|
=29	=29
(8.f#}	-ren,}
{8.f#	{ich
8.d#	ha-
8.f#)	-be
4.b	sie
4.a#	ge-
=30	=30
2.cc#	-fun-
(8.b	-den
8.a#	und
8.b	ha-
8.g#)	-be
=31	=31
(2.f#	neu-
[4.g#	|
4g#])	|
8f#	-en
=32	=32
2.f#}	Muth!}
2.r	.
=33	=33
2.r	.
4.r	.
{4.d#	{Will
=34	=34
4.g#	rin-
4.b	-gen
4.dd#	oh-
4.g#	-ne
=35	=35
4.f##	Za-
4a#}	-gen,}
8r	.
4.r	.
{4.d#	{will
=36	=36
4.g#	ja-
4.b	-gen,
4.dd#	wet-
4.g#	-ten,
=37	=37
4.f##	wa-
4a#}	-gen,}
8r	.
4.r	.
{4.d#	{bis
=38	=38
4.cc#	dass
4.b	sie
4.a#	u2-
4.g#	-ber-
=39	=39
2.ee	-wun-
(8.g#	-den
8.a#	an
8.b	mein-
8.cc#)	-em
=40	=40
([2.f#	Her-
4f#]	|
4e)	|
4c#	-zen
=41	=41
2.B}	ruht!}
2.r	.
=46	=46
8.r	.
{8.f#	{Und
8.d#	wenn
8.f#	es
4.b	wird
4.a#	ge-
=47	=47
2.cc#	-lin-
8.b	-gen,
8.a#	da
8.b	will
8.cc#	ich
=48	=48
4.dd#	Lie-
4.cc#	-der
(4.b	sin-
4.cc#)	|
=49	=49
(8.f#}	-gen!}
{8.f#	{Will
8.d#	sin-
8.f#)	-gen
4.b	Herz
4.a#	an
=50	=50
2.cc#	Her-
(8.b	-zen,
8.a#	will
8.b	sin-
8.g#)	-gen
=51	=51
(2.f#	fu2r
[4.g#	|
4g#])	|
8f#	und
=52	=52
2.f#}	fu2r!}
2.r	.
=53	=53
2.r	.
4.r	.
{4.d#	{doch
=54	=54
4.g#	sollt'
4.b	es
4.dd#	nim-
4.g#	-mer
=55	=55
4.f##	glu2-
4a#}	-cken,}
8r	.
4.r	,
{4.d#	{da
=56	=56
4.g#	schlag'
4.b	ich
4.dd#	es
4.g#	in
=57	=57
4.f##	Stu2-
4a#}	-cken,}
8r	.
4.r	.
{4.d#	{mein
=58	=58
4.cc#	Sai-
4.b	-ten-
4.a#	-spiel
4.g#	voll
=59	=59
2.ee	Schmer-
4g#}	-zen,}
8r	.
{4.a#	{und
=60	=60
4.b	schwei-
4.g#	-ge
[4.a#	fu2r
4a#]	|
8g#	und
=61	=61
2.g#}	fu2r!}
2.r	.
*-	*-
